svg/furkot/icomoon/radio-checked.svg

<svg viewBox="0 0 512 512" xmlns="http://www.w3.org/2000/svg"><path d="m256 0c-141.384 0-256 114.616-256 256s114.616 256 256 256 256-114.616 256-256-114.616-256-256-256zm0 448c-106.04 0-192-85.96-192-192s85.96-192 192-192 192 85.96 192 192-85.96 192-192 192zm-96-192c0-53.016 42.984-96 96-96s96 42.984 96 96-42.984 96-96 96-96-42.984-96-96z"/></svg>

<svg xmlns="http://www.w3.org/2000/svg" viewBox="0 0 512 512"><path d="M256 0C114.616 0 0 114.616 0 256S114.616 512 256 512 512 397.384 512 256 397.384 0 256 0ZM256 448C149.96 448 64 362.04 64 256S149.96 64 256 64C362.04 64 448 149.96 448 256S362.04 448 256 448ZM160 256C160 202.984 202.984 160 256 160S352 202.984 352 256C352 309.016 309.016 352 256 352S160 309.016 160 256Z"/></svg>
